X:14
T:Lass a Way. TJD.14
M:6/8
L:1/8
Q:3/8=120
S:T.J.Dixon MS1, Lincolnshire, 1798
R:jig
N:D in bars 8 and 16 changed to dotted crotchets
A:Lincolnshire, Holton le Moor
Z:Vmp.R.Greig2010
K:D
DED “^As writ”FG2|A2DA2F|G2AB2G|A2F GGE|DED F2G|!
A2dA2F|G2AB2G|A2FD3::d2ef2d|egf edc|d2ef2d|!
ecA A2A|d2ef2d|egf edc|d2AB2G|A2FD3:|]

